; generated by Slic3r 1.33.8 on 2018-02-25 at 15:54:47

; external perimeters extrusion width = 0.40mm
; perimeters extrusion width = 0.48mm
; infill extrusion width = 0.48mm
; solid infill extrusion width = 0.48mm
; top infill extrusion width = 0.48mm

M107
M190 S65 ; set bed temperature and wait for it to be reached
M104 S215 ; set temperature
G28 ; home all axes
G1 Z5 F5000 ; lift nozzle

M109 S215 ; set temperature and wait for it to be reached
G21 ; set units to millimeters
G90 ; use absolute coordinates
M82 ; use absolute distances for extrusion
G92 E0
G1 Z0.300 F7800.000
G1 E-8.00000 F2400.00000
G92 E0
G1 Z0.400 F7800.000
G1 X113.237 Y99.685 F7800.000
G1 Z0.300 F7800.000
G1 E8.00000 F2400.00000
G1 F1800
G1 X114.034 Y98.814 E8.07883
G1 X114.994 Y97.961 E8.16463
G1 X116.015 Y97.231 E8.24848
G1 X117.143 Y96.591 E8.33513
G1 X118.306 Y96.087 E8.41977
G1 X119.520 Y95.706 E8.50479
G1 X120.779 Y95.453 E8.59056
G1 X122.014 Y95.338 E8.67346
G1 X207.677 Y95.330 E14.39618
G1 X208.182 Y95.349 E14.42996
G1 X209.101 Y95.437 E14.49163
G1 X209.516 Y95.503 E14.51972
G1 X210.391 Y95.684 E14.57937
G1 X210.796 Y95.795 E14.60746
G1 X211.668 Y96.077 E14.66867
G1 X212.866 Y96.596 E14.75588
G1 X214.013 Y97.248 E14.84403
G1 X215.085 Y98.025 E14.93248
G1 X216.057 Y98.906 E15.02015
G1 X216.680 Y99.589 E15.08191
G1 X216.981 Y99.955 E15.11350
G1 X217.613 Y100.840 E15.18620
G1 X218.130 Y101.725 E15.25467
G1 X218.401 Y102.265 E15.29504
G1 X218.816 Y103.255 E15.36672
G1 X219.159 Y104.352 E15.44351
G1 X219.374 Y105.363 E15.51256
G1 X219.464 Y105.987 E15.55468
G1 X219.545 Y107.075 E15.62756
G1 X219.546 Y222.892 E23.36479
G1 X219.523 Y223.351 E23.39551
G1 X219.435 Y224.261 E23.45659
G1 X219.186 Y225.545 E23.54392
G1 X218.794 Y226.806 E23.63218
G1 X218.271 Y228.009 E23.71978
G1 X217.624 Y229.142 E23.80697
G1 X216.846 Y230.215 E23.89548
G1 X215.972 Y231.180 E23.98246
G1 X215.292 Y231.800 E24.04393
G1 X214.927 Y232.100 E24.07552
G1 X214.036 Y232.737 E24.14871
G1 X213.159 Y233.250 E24.21656
G1 X212.619 Y233.521 E24.25693
G1 X211.639 Y233.934 E24.32796
G1 X210.537 Y234.279 E24.40510
G1 X209.539 Y234.493 E24.47332
G1 X208.921 Y234.584 E24.51500
G1 X207.854 Y234.667 E24.58650
G1 X122.198 Y234.669 E30.30878
G1 X121.759 Y234.646 E30.33818
G1 X120.847 Y234.556 E30.39941
G1 X119.565 Y234.305 E30.48669
G1 X118.308 Y233.914 E30.57465
G1 X117.105 Y233.390 E30.66231
G1 X115.976 Y232.745 E30.74914
G1 X114.905 Y231.967 E30.83754
G1 X113.942 Y231.093 E30.92445
G1 X113.324 Y230.416 E30.98571
G1 X113.023 Y230.051 E31.01730
G1 X112.387 Y229.160 E31.09042
G1 X111.873 Y228.281 E31.15846
G1 X111.599 Y227.735 E31.19927
G1 X111.186 Y226.751 E31.27057
G1 X110.841 Y225.648 E31.34776
G1 X110.627 Y224.641 E31.41653
G1 X110.537 Y224.024 E31.45821
G1 X110.455 Y222.931 E31.53142
G1 X110.453 Y107.213 E39.26201
G1 X110.469 Y106.753 E39.29272
G1 X110.530 Y106.043 E39.34035
G1 X110.621 Y105.393 E39.38422
G1 X110.842 Y104.347 E39.45562
G1 X111.198 Y103.215 E39.53492
G1 X111.682 Y102.086 E39.61699
G1 X112.183 Y101.174 E39.68648
G1 X112.532 Y100.626 E39.72991
G1 X113.199 Y99.730 E39.80447
G1 X113.445 Y100.280 F7800.000
G1 F1800
G1 X113.725 Y99.939 E39.83400
G1 X114.323 Y99.283 E39.89327
G1 X115.251 Y98.442 E39.97695
G1 X116.278 Y97.698 E40.06169
G1 X117.378 Y97.073 E40.14619
G1 X118.518 Y96.579 E40.22917
G1 X119.740 Y96.203 E40.31462
G1 X120.970 Y95.967 E40.39827
G1 X121.861 Y95.883 E40.45808
G1 X122.343 Y95.866 E40.49028
G1 X207.960 Y95.873 E46.20996
G1 X209.149 Y95.984 E46.28972
G1 X210.367 Y96.230 E46.37272
G1 X211.536 Y96.600 E46.45469
G1 X212.696 Y97.110 E46.53929
G1 X213.745 Y97.713 E46.62017
G1 X214.763 Y98.454 E46.70429
G1 X215.678 Y99.284 E46.78681
G1 X216.272 Y99.936 E46.84569
G1 X216.549 Y100.272 E46.87479
G1 X217.164 Y101.132 E46.94546
G1 X217.657 Y101.976 E47.01078
G1 X217.912 Y102.484 E47.04874
G1 X218.309 Y103.428 E47.11717
G1 X218.641 Y104.488 E47.19134
G1 X218.847 Y105.459 E47.25763
G1 X218.931 Y106.033 E47.29644
G1 X219.010 Y107.085 E47.36686
G1 X219.010 Y222.875 E55.10229
G1 X218.990 Y223.304 E55.13098
G1 X218.904 Y224.189 E55.19035
G1 X218.666 Y225.415 E55.27382
G1 X218.291 Y226.621 E55.35817
G1 X217.794 Y227.765 E55.44147
G1 X217.177 Y228.848 E55.52479
G1 X216.434 Y229.874 E55.60939
G1 X215.598 Y230.796 E55.69250
G1 X214.941 Y231.395 E55.75196
G1 X214.605 Y231.672 E55.78107
G1 X213.744 Y232.288 E55.85177
G1 X212.902 Y232.780 E55.91693
G1 X212.400 Y233.033 E55.95447
G1 X211.459 Y233.429 E56.02269
G1 X210.394 Y233.763 E56.09719
G1 X209.435 Y233.967 E56.16271
G1 X208.861 Y234.052 E56.20152
G1 X207.830 Y234.132 E56.27059
G1 X122.217 Y234.133 E61.99000
G1 X121.807 Y234.112 E62.01743
G1 X120.920 Y234.026 E62.07695
G1 X119.695 Y233.786 E62.16036
G1 X118.493 Y233.411 E62.24443
G1 X117.349 Y232.913 E62.32779
G1 X116.276 Y232.301 E62.41034
G1 X115.252 Y231.559 E62.49484
G1 X114.326 Y230.720 E62.57831
G1 X113.728 Y230.064 E62.63755
G1 X113.451 Y229.728 E62.66666
G1 X112.836 Y228.868 E62.73731
G1 X112.336 Y228.013 E62.80348
G1 X112.082 Y227.504 E62.84145
G1 X111.677 Y226.535 E62.91161
G1 X111.354 Y225.494 E62.98447
G1 X111.144 Y224.495 E63.05262
G1 X111.063 Y223.901 E63.09269
G1 X111.003 Y223.211 E63.13897
G1 X110.989 Y222.780 E63.16774
G1 X110.990 Y107.093 E70.89627
G1 X111.069 Y106.041 E70.96675
G1 X111.152 Y105.466 E71.00556
G1 X111.356 Y104.499 E71.07159
G1 X111.682 Y103.453 E71.14481
G1 X112.081 Y102.498 E71.21392
G1 X112.329 Y102.001 E71.25104
G1 X112.822 Y101.154 E71.31652
G1 X113.408 Y100.328 E71.38417
G1 F6240
G1 X113.725 Y99.939 E71.20075
G1 F6240
G1 X114.323 Y99.283 E70.87659
G1 F6240
G1 X115.251 Y98.442 E70.41890
G1 F6240
G1 X116.278 Y97.698 E69.95544
G1 F6240
G1 X117.378 Y97.073 E69.49329
G1 F6240
G1 X118.518 Y96.579 E69.03942
G1 F6240
G1 X119.740 Y96.203 E68.57207
G1 F6240
G1 X120.970 Y95.967 E68.11455
G1 F6240
G1 X121.861 Y95.883 E67.78744
G1 F6240
G1 X122.343 Y95.866 E67.61131
G1 F6240
G1 X132.817 Y95.866 E63.78417
G1 E63.38417 F2400.00000
G92 E0
G1 Z0.400 F7800.000
G1 X205.390 Y220.122 F7800.000
G1 Z0.300 F7800.000
G1 E8.00000 F2400.00000
G1 F1800
G1 X205.673 Y219.907 E8.02372
G1 X206.001 Y219.708 E8.04933
G1 X206.337 Y219.553 E8.07406
G1 X206.687 Y219.435 E8.09874
G1 X207.048 Y219.355 E8.12344
G1 X207.415 Y219.315 E8.14812
G1 X207.785 Y219.315 E8.17282
G1 X208.152 Y219.355 E8.19750
G1 X208.513 Y219.435 E8.22219
G1 X208.863 Y219.553 E8.24688
G1 X209.199 Y219.708 E8.27157
G1 X209.515 Y219.898 E8.29625
G1 X209.809 Y220.122 E8.32094
G1 X210.078 Y220.376 E8.34563
G1 X210.317 Y220.658 E8.37032
G1 X210.524 Y220.964 E8.39501
G1 X210.697 Y221.290 E8.41970
G1 X210.834 Y221.634 E8.44438
G1 X210.933 Y221.990 E8.46907
G1 X210.993 Y222.354 E8.49376
G1 X211.013 Y222.723 E8.51845
G1 X210.993 Y223.092 E8.54313
G1 X210.935 Y223.443 E8.56686
G1 X210.834 Y223.812 E8.59246
G1 X210.697 Y224.156 E8.61719
G1 X210.524 Y224.483 E8.64188
G1 X210.317 Y224.789 E8.66657
G1 X210.078 Y225.070 E8.69126
G1 X209.809 Y225.325 E8.71595
G1 X209.515 Y225.548 E8.74064
G1 X209.199 Y225.739 E8.76532
G1 X208.863 Y225.894 E8.79001
G1 X208.513 Y226.012 E8.81470
G1 X208.152 Y226.091 E8.83939
G1 X207.785 Y226.131 E8.86407
G1 X207.415 Y226.131 E8.88876
G1 X207.048 Y226.091 E8.91345
G1 X206.687 Y226.012 E8.93814
G1 X206.337 Y225.894 E8.96283
G1 X206.001 Y225.739 E8.98752
G1 X205.697 Y225.556 E9.01124
G1 X205.391 Y225.325 E9.03685
G1 X205.122 Y225.070 E9.06158
G1 X204.883 Y224.789 E9.08627
G1 X204.675 Y224.483 E9.11095
G1 X204.502 Y224.156 E9.13564
G1 X204.365 Y223.813 E9.16033
G1 X204.267 Y223.457 E9.18502
G1 X204.207 Y223.092 E9.20971
G1 X204.188 Y222.738 E9.23342
G1 X204.207 Y222.355 E9.25904
G1 X204.267 Y221.990 E9.28376
G1 X204.365 Y221.634 E9.30846
G1 X204.502 Y221.290 E9.33314
G1 X204.675 Y220.964 E9.35783
G1 X204.883 Y220.658 E9.38252
G1 X205.122 Y220.376 E9.40721
G1 X205.347 Y220.163 E9.42789
G1 X205.327 Y219.773 F7800.000
G1 F6240
G1 X205.673 Y219.907 E9.27636
G1 F6240
G1 X206.001 Y219.708 E9.13627
G1 F6240
G1 X206.337 Y219.553 E9.00103
G1 F6240
G1 X206.687 Y219.435 E8.86601
G1 F6240
G1 X207.048 Y219.355 E8.73096
G1 F6240
G1 X207.415 Y219.315 E8.59593
G1 F6240
G1 X207.785 Y219.315 E8.46088
G1 F6240
G1 X208.152 Y219.355 E8.32585
G1 F6240
G1 X208.513 Y219.435 E8.19084
G1 F6240
G1 X208.863 Y219.553 E8.05582
G1 F6240
G1 X209.199 Y219.708 E7.92077
G1 F6240
G1 X209.515 Y219.898 E7.78575
G1 F6240
G1 X209.809 Y220.122 E7.65072
G1 F6240
G1 X210.078 Y220.376 E7.51567
G1 F6240
G1 X210.317 Y220.658 E7.38066
G1 F6240
G1 X210.524 Y220.964 E7.24560
G1 F6240
G1 X210.697 Y221.290 E7.11059
G1 F6240
G1 X210.834 Y221.634 E6.97558
G1 F6240
G1 X210.933 Y221.990 E6.84053
G1 F6240
G1 X210.993 Y222.354 E6.70553
G1 F6240
G1 X211.013 Y222.723 E6.57047
G1 F6240
G1 X210.993 Y223.092 E6.43546
G1 F6240
G1 X210.935 Y223.443 E6.30572
G1 F6240
G1 X210.834 Y223.812 E6.16567
G1 F6240
G1 X210.697 Y224.156 E6.03040
G1 F6240
G1 X210.524 Y224.483 E5.89538
G1 F6240
G1 X210.317 Y224.789 E5.76035
G1 F6240
G1 X210.078 Y225.070 E5.62531
G1 F6240
G1 X209.809 Y225.325 E5.49028
G1 F6240
G1 X209.515 Y225.548 E5.35523
G1 F6240
G1 X209.199 Y225.739 E5.22024
G1 F6240
G1 X208.863 Y225.894 E5.08518
G1 F6240
G1 X208.513 Y226.012 E4.95015
G1 F6240
G1 X208.152 Y226.091 E4.81515
G1 F6240
G1 X207.785 Y226.131 E4.68012
G1 F6240
G1 X207.415 Y226.131 E4.54508
G1 F6240
G1 X207.048 Y226.091 E4.41005
G1 F6240
G1 X206.687 Y226.012 E4.27501
G1 F6240
G1 X206.337 Y225.894 E4.13998
G1 F6240
G1 X206.001 Y225.739 E4.00496
G1 F6240
G1 X205.697 Y225.556 E3.87523
G1 F6240
G1 X205.391 Y225.325 E3.73516
G1 F6240
G1 X205.122 Y225.070 E3.59991
G1 F6240
G1 X204.883 Y224.789 E3.46486
G1 F6240
G1 X204.675 Y224.483 E3.32986
G1 F6240
G1 X204.502 Y224.156 E3.19482
G1 F6240
G1 X204.365 Y223.813 E3.05977
G1 F6240
G1 X204.267 Y223.457 E2.92476
G1 F6240
G1 X204.207 Y223.092 E2.78971
G1 F6240
G1 X204.188 Y222.738 E2.66000
G1 F6240
G1 X204.207 Y222.355 E2.51991
G1 F6240
G1 X204.267 Y221.990 E2.38467
G1 F6240
G1 X204.365 Y221.634 E2.24963
G1 F6240
G1 X204.502 Y221.290 E2.11460
G1 F6240
G1 X204.675 Y220.964 E1.97958
G1 F6240
G1 X204.883 Y220.658 E1.84454
G1 F6240
G1 X204.912 Y220.623 E1.82789
G1 E1.42789 F2400.00000
G92 E0
G1 Z0.400 F7800.000
G1 X125.812 Y222.709 F7800.000
G1 Z0.300 F7800.000
G1 E8.00000 F2400.00000
G1 F1800
G1 X125.793 Y223.092 E8.02560
G1 X125.733 Y223.457 E8.05034
G1 X125.635 Y223.813 E8.07502
G1 X125.498 Y224.156 E8.09972
G1 X125.325 Y224.483 E8.12441
G1 X125.117 Y224.789 E8.14909
G1 X124.878 Y225.070 E8.17378
G1 X124.610 Y225.325 E8.19847
G1 X124.316 Y225.548 E8.22316
G1 X123.999 Y225.739 E8.24784
G1 X123.663 Y225.894 E8.27253
G1 X123.313 Y226.012 E8.29722
G1 X122.952 Y226.091 E8.32191
G1 X122.585 Y226.131 E8.34660
G1 X122.215 Y226.131 E8.37129
G1 X121.848 Y226.091 E8.39598
G1 X121.487 Y226.012 E8.42066
G1 X121.137 Y225.894 E8.44535
G1 X120.801 Y225.739 E8.47004
G1 X120.485 Y225.548 E8.49472
G1 X120.191 Y225.325 E8.51941
G1 X119.933 Y225.080 E8.54313
G1 X119.683 Y224.789 E8.56874
G1 X119.476 Y224.483 E8.59347
G1 X119.303 Y224.156 E8.61816
G1 X119.166 Y223.813 E8.64285
G1 X119.067 Y223.457 E8.66754
G1 X119.007 Y223.092 E8.69223
G1 X118.987 Y222.723 E8.71691
G1 X119.007 Y222.354 E8.74160
G1 X119.065 Y222.004 E8.76532
G1 X119.166 Y221.634 E8.79093
G1 X119.303 Y221.290 E8.81566
G1 X119.476 Y220.964 E8.84034
G1 X119.683 Y220.658 E8.86504
G1 X119.922 Y220.376 E8.88972
G1 X120.191 Y220.122 E8.91441
G1 X120.485 Y219.898 E8.93910
G1 X120.801 Y219.708 E8.96379
G1 X121.137 Y219.553 E8.98848
G1 X121.487 Y219.435 E9.01317
G1 X121.848 Y219.355 E9.03785
G1 X122.215 Y219.315 E9.06254
G1 X122.585 Y219.315 E9.08723
G1 X122.952 Y219.355 E9.11192
G1 X123.313 Y219.435 E9.13661
G1 X123.663 Y219.553 E9.16130
G1 X123.999 Y219.708 E9.18598
G1 X124.316 Y219.898 E9.21068
G1 X124.610 Y220.122 E9.23536
G1 X124.878 Y220.376 E9.26005
G1 X125.117 Y220.658 E9.28474
G1 X125.325 Y220.964 E9.30943
G1 X125.498 Y221.290 E9.33412
G1 X125.635 Y221.634 E9.35880
G1 X125.733 Y221.990 E9.38349
G1 X125.793 Y222.354 E9.40818
G1 X125.809 Y222.649 E9.42789
G1 X126.145 Y222.899 F7800.000
G1 X122.585 Y110.685 F7800.000
G1 F1800
G1 X122.215 Y110.685 E9.45258
G1 X121.862 Y110.646 E9.47630
G1 X121.488 Y110.566 E9.50191
G1 X121.137 Y110.447 E9.52664
G1 X120.801 Y110.292 E9.55133
G1 X120.485 Y110.102 E9.57602
G1 X120.191 Y109.878 E9.60071
G1 X119.922 Y109.624 E9.62540
G1 X119.683 Y109.342 E9.65008
G1 X119.476 Y109.036 E9.67478
G1 X119.303 Y108.710 E9.69946
G1 X119.166 Y108.366 E9.72415
G1 X119.067 Y108.010 E9.74884
G1 X119.007 Y107.646 E9.77352
G1 X118.987 Y107.277 E9.79821
G1 X119.007 Y106.908 E9.82290
G1 X119.067 Y106.543 E9.84759
G1 X119.166 Y106.187 E9.87227
G1 X119.297 Y105.857 E9.89600
G1 X119.475 Y105.518 E9.92160
G1 X119.683 Y105.211 E9.94633
G1 X119.922 Y104.930 E9.97102
G1 X120.191 Y104.675 E9.99571
G1 X120.485 Y104.452 E10.02040
G1 X120.801 Y104.261 E10.04508
G1 X121.137 Y104.106 E10.06978
G1 X121.487 Y103.988 E10.09447
G1 X121.848 Y103.909 E10.11915
G1 X122.215 Y103.869 E10.14384
G1 X122.585 Y103.869 E10.16853
G1 X122.952 Y103.909 E10.19322
G1 X123.313 Y103.988 E10.21791
G1 X123.663 Y104.106 E10.24259
G1 X123.999 Y104.261 E10.26728
G1 X124.316 Y104.452 E10.29197
G1 X124.610 Y104.675 E10.31666
G1 X124.878 Y104.930 E10.34134
G1 X125.117 Y105.211 E10.36603
G1 X125.325 Y105.517 E10.39072
G1 X125.498 Y105.844 E10.41541
G1 X125.635 Y106.187 E10.44010
G1 X125.733 Y106.543 E10.46479
G1 X125.793 Y106.908 E10.48948
G1 X125.812 Y107.262 E10.51319
G1 X125.793 Y107.645 E10.53881
G1 X125.733 Y108.010 E10.56353
G1 X125.635 Y108.366 E10.58822
G1 X125.498 Y108.710 E10.61291
G1 X125.325 Y109.036 E10.63760
G1 X125.117 Y109.342 E10.66229
G1 X124.878 Y109.624 E10.68698
G1 X124.610 Y109.878 E10.71166
G1 X124.316 Y110.102 E10.73635
G1 X123.999 Y110.292 E10.76104
G1 X123.663 Y110.447 E10.78573
G1 X123.313 Y110.565 E10.81041
G1 X122.952 Y110.645 E10.83511
G1 X122.645 Y110.678 E10.85579
G1 X122.418 Y111.014 F7800.000
G1 F6240
G1 X122.215 Y110.685 E10.69894
G1 F6240
G1 X121.862 Y110.646 E10.56920
G1 F6240
G1 X121.488 Y110.566 E10.42915
G1 F6240
G1 X121.137 Y110.447 E10.29390
G1 F6240
G1 X120.801 Y110.292 E10.15885
G1 F6240
G1 X120.485 Y110.102 E10.02383
G1 F6240
G1 X120.191 Y109.878 E9.88880
G1 F6240
G1 X119.922 Y109.624 E9.75375
G1 F6240
G1 X119.683 Y109.342 E9.61874
G1 F6240
G1 X119.476 Y109.036 E9.48368
G1 F6240
G1 X119.303 Y108.710 E9.34867
G1 F6240
G1 X119.166 Y108.366 E9.21366
G1 F6240
G1 X119.067 Y108.010 E9.07862
G1 F6240
G1 X119.007 Y107.646 E8.94361
G1 F6240
G1 X118.987 Y107.277 E8.80856
G1 F6240
G1 X119.007 Y106.908 E8.67354
G1 F6240
G1 X119.067 Y106.543 E8.53850
G1 F6240
G1 X119.166 Y106.187 E8.40349
G1 F6240
G1 X119.297 Y105.857 E8.27375
G1 F6240
G1 X119.475 Y105.518 E8.13369
G1 F6240
G1 X119.683 Y105.211 E7.99843
G1 F6240
G1 X119.922 Y104.930 E7.86339
G1 F6240
G1 X120.191 Y104.675 E7.72836
G1 F6240
G1 X120.485 Y104.452 E7.59333
G1 F6240
G1 X120.801 Y104.261 E7.45833
G1 F6240
G1 X121.137 Y104.106 E7.32326
G1 F6240
G1 X121.487 Y103.988 E7.18824
G1 F6240
G1 X121.848 Y103.909 E7.05323
G1 F6240
G1 X122.215 Y103.869 E6.91820
G1 F6240
G1 X122.585 Y103.869 E6.78316
G1 F6240
G1 X122.952 Y103.909 E6.64813
G1 F6240
G1 X123.313 Y103.988 E6.51309
G1 F6240
G1 X123.663 Y104.106 E6.37806
G1 F6240
G1 X123.999 Y104.261 E6.24303
G1 F6240
G1 X124.316 Y104.452 E6.10800
G1 F6240
G1 X124.610 Y104.675 E5.97299
G1 F6240
G1 X124.878 Y104.930 E5.83797
G1 F6240
G1 X125.117 Y105.211 E5.70292
G1 F6240
G1 X125.325 Y105.517 E5.56791
G1 F6240
G1 X125.498 Y105.844 E5.43287
G1 F6240
G1 X125.635 Y106.187 E5.29783
G1 F6240
G1 X125.733 Y106.543 E5.16282
G1 F6240
G1 X125.793 Y106.908 E5.02777
G1 F6240
G1 X125.812 Y107.262 E4.89805
G1 F6240
G1 X125.793 Y107.645 E4.75797
G1 F6240
G1 X125.733 Y108.010 E4.62273
G1 F6240
G1 X125.635 Y108.366 E4.48768
G1 F6240
G1 X125.498 Y108.710 E4.35266
G1 F6240
G1 X125.325 Y109.036 E4.21763
G1 F6240
G1 X125.117 Y109.342 E4.08259
G1 F6240
G1 X124.878 Y109.624 E3.94757
G1 F6240
G1 X124.610 Y109.878 E3.81254
G1 F6240
G1 X124.316 Y110.102 E3.67752
G1 F6240
G1 X123.999 Y110.292 E3.54247
G1 F6240
G1 X123.663 Y110.447 E3.40746
G1 F6240
G1 X123.313 Y110.565 E3.27244
G1 F6240
G1 X123.269 Y110.575 E3.25579
